packages/icons/src/svg/question-circle.svg

<svg xmlns="http://www.w3.org/2000/svg" viewBox="0 0 16 16"><path d="M13.63934,2.36633A7.68945,7.68945,0,0,0,7.98126.00024,7.68945,7.68945,0,0,0,2.32318,2.36633,7.54891,7.54891,0,0,0,0,8a7.6905,7.6905,0,0,0,2.32318,5.6712,7.80088,7.80088,0,0,0,5.65808,2.32855,7.80088,7.80088,0,0,0,5.65808-2.32855A7.72494,7.72494,0,0,0,16,8,7.58242,7.58242,0,0,0,13.63934,2.36633ZM9,14H7V12H9Zm2.1084-6.75024a3.72654,3.72654,0,0,1-.46014.79755,6.53576,6.53576,0,0,1-.58228.66925,7.38283,7.38283,0,0,0-.56738.6427,2.9032,2.9032,0,0,0-.41272.72528A1.99785,1.99785,0,0,0,8.97864,11H7.01727a2.59439,2.59439,0,0,1,.03864-1.0791A3.31245,3.31245,0,0,1,7.415,9.06146,3.80161,3.80161,0,0,1,7.94373,8.373c.19946-.2049.38525-.4054.55981-.59851a4.37632,4.37632,0,0,0,.44391-.57928A1.16243,1.16243,0,0,0,9.132,6.56134a1.07994,1.07994,0,0,0-.32294-.8609,1.18933,1.18933,0,0,0-.81177-.28009,1.5239,1.5239,0,0,0-.8429.2359,4.0454,4.0454,0,0,0-.71948.597L5.178,4.89557a4.63289,4.63289,0,0,1,1.303-1.17786A3.16688,3.16688,0,0,1,8.1507,3.26514,4.12294,4.12294,0,0,1,9.38391,3.445a2.72745,2.72745,0,0,1,.99628.5528,2.65956,2.65956,0,0,1,.66711.92432,3.1968,3.1968,0,0,1,.24438,1.29578A2.64809,2.64809,0,0,1,11.1084,7.24976Z"/></svg>

<svg xmlns="http://www.w3.org/2000/svg" viewBox="0 0 16 16">
	<path d="M13.64 2.366A7.69 7.69 0 0 0 7.98 0a7.69 7.69 0 0 0-5.658 2.366A7.549 7.549 0 0 0 0 8a7.69 7.69 0 0 0 2.323 5.671A7.8 7.8 0 0 0 7.981 16a7.8 7.8 0 0 0 5.658-2.329A7.725 7.725 0 0 0 16 8a7.582 7.582 0 0 0-2.36-5.634zM9 14H7v-2h2zm2.108-6.75a3.727 3.727 0 0 1-.46.797 6.536 6.536 0 0 1-.582.67 7.383 7.383 0 0 0-.567.642 2.903 2.903 0 0 0-.413.726 1.998 1.998 0 0 0-.107.915H7.017a2.594 2.594 0 0 1 .039-1.08 3.312 3.312 0 0 1 .359-.859 3.802 3.802 0 0 1 .529-.688c.2-.205.385-.405.56-.599a4.376 4.376 0 0 0 .443-.579 1.162 1.162 0 0 0 .185-.634 1.08 1.08 0 0 0-.323-.86 1.19 1.19 0 0 0-.812-.28 1.524 1.524 0 0 0-.843.235 4.045 4.045 0 0 0-.72.597L5.179 4.896a4.633 4.633 0 0 1 1.303-1.178 3.167 3.167 0 0 1 1.67-.453 4.123 4.123 0 0 1 1.233.18 2.727 2.727 0 0 1 .996.553 2.66 2.66 0 0 1 .667.924 3.197 3.197 0 0 1 .245 1.296 2.648 2.648 0 0 1-.184 1.032z"/>
</svg>
